src/lib/packages/icons/src/assets/line/video-square.svg

<svg width="24" height="24" viewBox="0 0 24 24" fill="none" xmlns="http://www.w3.org/2000/svg">
<path d="M17.625 2.25H6.375C3.715 2.25 2.25 3.715 2.25 6.375V17.625C2.25 20.285 3.715 21.75 6.375 21.75H17.625C20.285 21.75 21.75 20.285 21.75 17.625V6.375C21.75 3.715 20.285 2.25 17.625 2.25ZM20.25 17.625C20.25 19.465 19.465 20.25 17.625 20.25H6.375C4.535 20.25 3.75 19.465 3.75 17.625V6.375C3.75 4.535 4.535 3.75 6.375 3.75H17.625C19.465 3.75 20.25 4.535 20.25 6.375V17.625ZM17.5901 8.51001C17.1841 8.31501 16.7121 8.3689 16.3611 8.6499L15.467 9.36499C15.311 8.11199 14.4721 7.3999 13.0991 7.3999H8.1499C6.6249 7.3999 5.75 8.27505 5.75 9.80005V14.2C5.75 15.725 6.6249 16.6001 8.1499 16.6001H13.0991C14.4711 16.6001 15.311 15.887 15.467 14.634L16.3601 15.3479C16.5721 15.5179 16.827 15.605 17.085 15.605C17.256 15.605 17.4291 15.566 17.5901 15.489C17.9971 15.294 18.25 14.8919 18.25 14.4409V9.55688C18.25 9.10688 17.9971 8.70601 17.5901 8.51001ZM14 14.2C14 14.889 13.7901 15.1001 13.1001 15.1001H8.15088C7.46088 15.1001 7.25098 14.89 7.25098 14.2V9.80005C7.25098 9.11105 7.46088 8.8999 8.15088 8.8999H13.1001C13.7901 8.8999 14 9.11005 14 9.80005V14.2ZM16.75 13.739L15.5 12.739V11.26L16.75 10.26V13.739Z" fill="currentColor"/>
</svg>

<svg xmlns="http://www.w3.org/2000/svg" width="24" height="24" fill="none"><path fill="currentColor" d="M17.625 2.25H6.375c-2.66 0-4.125 1.465-4.125 4.125v11.25c0 2.66 1.465 4.125 4.125 4.125h11.25c2.66 0 4.125-1.465 4.125-4.125V6.375c0-2.66-1.465-4.125-4.125-4.125Zm2.625 15.375c0 1.84-.785 2.625-2.625 2.625H6.375c-1.84 0-2.625-.785-2.625-2.625V6.375c0-1.84.785-2.625 2.625-2.625h11.25c1.84 0 2.625.785 2.625 2.625v11.25ZM17.59 8.51a1.154 1.154 0 0 0-1.229.14l-.894.715c-.156-1.253-.995-1.965-2.368-1.965H8.15c-1.524 0-2.399.875-2.399 2.4v4.4c0 1.525.875 2.4 2.4 2.4h4.95c1.371 0 2.211-.713 2.367-1.966l.893.714a1.156 1.156 0 0 0 1.23.141c.407-.195.66-.597.66-1.048V9.557c0-.45-.253-.851-.66-1.047ZM14 14.2c0 .689-.21.9-.9.9H8.15c-.69 0-.899-.21-.899-.9V9.8c0-.689.21-.9.9-.9h4.95c.69 0 .899.21.899.9v4.4Zm2.75-.461-1.25-1V11.26l1.25-1v3.479Z"/></svg>
